X: 22333
T: La Valse Matique
R: waltz
M: 3/4
K: Aminor
AB|c3 B A2|B2 E2 E2|e3 d cB|c2 A2 AB|c3 B A2|B2 E2 E2|e3 d Bc|A4:|
A2|:B2 EB EB|cA Ac Ac|B2 EB EB|c2 A2 c2|d2 GdGd|e3 f e2|
[1 d3 c B2|c4 (3cdc:|2 a2 g2 d2|e4|:e2|f2 d2 a2|e3 d c2|B2 de f2|e2 c2 e2|
[1 f2 d2 a2|e3 d c2|B3 G B2|c4:|2 f2 b2 a2|e3 d c2|B3 E B2|A4||

